X:1
T:Mrs. C. H. Morris
T:Mrs. C. H. M.
T:"At Calvary"
%%score { ( 1 2 ) | ( 3 4 ) }
L:1/8
M:6/8
K:G
V:1 treble 
V:2 treble 
V:3 bass 
V:4 bass 
V:1
{/x} D | C^CD BAG | GFE F2 D | DED cBA | GFG A2 D | B^AB dBG | AGE D2 !>!d | %7
w: By|sins' con\- dem\- na\- tion my|heart was op\- pressed, No|peace could I find, and no|com\- fort, no rest, Till|Je\- sus' voice whis\- pered so|sweet\- ly to me, "Come|
w: I|plunged in the foun\- tain, the|re\- me\- dy sure For|sin and un\- clean\- ness,\- the|un\- fail\- ing cure: My|bur\- den fell off,\- and to\-|day I can see There's|
w: Oh,|won\- der\- ful cross with its|arms stretch\- ing wide For|you and for me, and the|whole world be\- side: No|one is ex\- clud\- ed, and|mer\- cy is free For|
 !>!d!>!B!>!G !>!A<!>!AA | B2 A !fermata!G2 d | dAB c2 E | EGA B2 B | BcB BeB | %12
w: lay down your bur\- den at|Cal\- va\- ry." At|Cal\- * va\- ry, at|Cal\- * va\- ry, My|bur\- dens fell off and from|
w: per- fect sal\- va\- tion at|Cal\- va\- ry. *||||
w: ev\- 'ry lost sin\- ner at|Cal\- va\- ry. *||||
"^crescendo" ABA d2 d | d>ed BAG | Gce d2 !>!d | !>!d!>!B!>!G !>!A<!>!AA | B2 A !fermata!G2 |] %17
w: sin I was free; To|Je\- sus for\- ev\- er the|glo\- ry shall be; I|lost all my bur\- dens at|Cal\-. va\- ry.|
w: |||||
w: |||||
V:2
 B, | B,^A,B, D=CB, | CCC C2 C | CCC EDC | ^CCC =C2 C | D^CD DDF | EEC B,2 !>!d | dBG G<GG | %8
 G2 F D2 G | F2 F F2 C | B,DD D2 G | AAA GGG | GGG F2 F | G>GG GGG | EEG G2 !>!d | dBG G<GG | %16
 G2 F D2 |] %17
V:3
 G,, | G,,G,,G,, G,,G,,G,, | D,D,D, D,2 D, | D,D,D, D,D,D, | G,A,A, F,2 F, | G,G,G, B,G,G, | %6
 G,G,G, G,2 D | DB,G, ^C<CC | D2 C B,2 B, | A,CD E2 F, | G,2 F, G,2 D | ^DDD EEE | ^CCC D2 =C | %13
 B,>CB, DCB, | CG,C B,2 D | DB,G, ^C<CC | D2 C [G,B,]2 |] %17
V:4
 z | x6 | x6 | x6 | A,,A,,A,, D,2 D, | G,,G,,G,, G,,G,,B,, | C,C,C, G,,2 D | DB,G, E,<E,E, | %8
 D,2 D, G,,2 G, | D,2 D, D,2 D, | D,B,,D, G,2 G, | F,F,F, E,E,E, | A,A,A, D,2 D, | G,>G,G, G,G,G, | %14
 C,C,C, G,,2 D | DB,G, E,<E,E, | D,2 D, G,,2 |] %17

